images/mobile-header-menu.svg

<svg width="24" height="14" xmlns="http://www.w3.org/2000/svg" fill="none">

 <g>
  <title>Layer 1</title>
  <path id="svg_1" fill="#737373" d="m1,0l22.4286,0l0,2.28571l-22.4286,0l0,-2.28571zm5.28576,5.71429l17.14284,0l0,2.28571l-17.14284,0l0,-2.28571zm7.14284,5.71431l10,0l0,2.2857l-10,0l0,-2.2857z"/>
 </g>
</svg>

<svg width="24" height="14" viewBox="0 0 24 14" fill="none" xmlns="http://www.w3.org/2000/svg">
<path d="M0.571472 0H23.4286V2.28571H0.571472V0ZM6.28576 5.71429H23.4286V8H6.28576V5.71429ZM13.4286 11.4286H23.4286V13.7143H13.4286V11.4286Z" fill="#737373"/>
</svg>
